X: 55
T: No_5_He_Has_Gone.krn
N: Derived from No_5_He_Has_Gone.krn
%%abc-version 2.0
%%abcx-abcm2ps-target-version 5.9.1 (29 Sep 2008)
%%abc-creator hum2abc beta
%%abcx-conversion-date 2019/03/15 08:27:55
%%humdrum-veritas 2808617412
%%humdrum-veritas-data 276878765
%%linebreak <none>
%%barnumbers 0
L: 1/16
M: 3/4
K: E clef=treble
[K:clef=treble][M:3/4]F4F4F2F2 | 
[M:2/4]F4FEE2 | 
GEE2 E2B,C | 
B,4B,4 | 
B,4B,2 z F | 
E4E2E2 | 
[M:3/4]E2E2 E2E2 (EC)C z | 
[M:2/4]GEE2 E2B,C | 
[M:3/8]B,4z2 | 
[M:2/4]E3F ECCB, | 
CB,3- B,2G, z | 
B,3B,B,4 | 
[M:3/4]B,3B, B,2z4z G | 
F4F4F2F2 | 
[M:2/4]F4(FE)E z | 
GEE2 E2B,C | 
B,4B,4- | 
B,4B,2 z2 | 
FE3 E2E2 | 
E2E2 ECC z | 
GEE2 E2B,C | 
[M:3/8]B,4z2 | 
[M:2/4]E3F ECCB, | 
CB,3-B,4 | 
B,3B,B,4 | 
(B,^A,) z B, (B,A,) z2 |]  



